22x22/panel/pomodoneapp-paused.svg

<svg xmlns="http://www.w3.org/2000/svg" width="22" height="22"><defs><style id="current-color-scheme" type="text/css"></style></defs><path style="fill:currentColor;color:#d3dae3" d="M11 3a8 8 0 1 0 0 16 8 8 0 0 0 0-16zM8.5 7h5c.831 0 1.5.669 1.5 1.5v5c0 .831-.669 1.5-1.5 1.5h-5c-.831 0-1.5-.669-1.5-1.5v-5C7 7.669 7.669 7 8.5 7zm0 1c-.277 0-.5.223-.5.5v5c0 .277.223.5.5.5h1c.277 0 .5-.223.5-.5v-5c0-.277-.223-.5-.5-.5h-1zm4 0c-.277 0-.5.223-.5.5v5c0 .277.223.5.5.5h1c.277 0 .5-.223.5-.5v-5c0-.277-.223-.5-.5-.5h-1z"/></svg>

<svg xmlns="http://www.w3.org/2000/svg" width="22" height="22" version="1.1">
 <defs>
  <style id="current-color-scheme" type="text/css">
   .ColorScheme-Text { color:#d3dae3; } .ColorScheme-Highlight { color:#4285f4; }
  </style>
 </defs>
 <path style="fill:currentColor" class="ColorScheme-Text" d="M 11 3 C 6.5817219 2.9999999 2.9999999 6.5817219 3 11 C 3 15.418278 6.581722 19 11 19 C 15.418278 19 19 15.418278 19 11 C 19 6.5817219 15.418278 3 11 3 z M 8.5 7 L 13.5 7 C 14.331 7 15 7.669 15 8.5 L 15 13.5 C 15 14.331 14.331 15 13.5 15 L 8.5 15 C 7.669 15 7 14.331 7 13.5 L 7 8.5 C 7 7.669 7.669 7 8.5 7 z M 8.5 8 C 8.223 8 8 8.223 8 8.5 L 8 13.5 C 8 13.777 8.223 14 8.5 14 L 9.5 14 C 9.777 14 10 13.777 10 13.5 L 10 8.5 C 10 8.223 9.777 8 9.5 8 L 8.5 8 z M 12.5 8 C 12.223 8 12 8.223 12 8.5 L 12 13.5 C 12 13.777 12.223 14 12.5 14 L 13.5 14 C 13.777 14 14 13.777 14 13.5 L 14 8.5 C 14 8.223 13.777 8 13.5 8 L 12.5 8 z"/>
</svg>
